src/assets/icons/filter.svg

<svg width="16" height="16" viewBox="0 0 16 16" fill="none" xmlns="http://www.w3.org/2000/svg">
<g clip-path="url(#clip0_8874_15314)">
<path fill-rule="evenodd" clip-rule="evenodd" d="M0.629193 0.0294525C0.128931 0.160049 -0.137785 0.724531 0.0744733 1.20354C0.0953161 1.25056 1.32154 2.98176 2.79941 5.05065L5.48647 8.81227L5.48661 11.9584C5.48669 13.784 5.49341 15.1624 5.50263 15.2426C5.54978 15.6526 5.87619 15.9656 6.28845 15.9961C6.43399 16.0068 6.60261 15.9753 6.72042 15.9151C6.8544 15.8468 10.2143 13.5952 10.268 13.5377C10.3493 13.4508 10.4248 13.3219 10.4669 13.198L10.5046 13.0868L10.5133 10.941L10.5219 8.79517L13.2025 5.04485C14.6768 2.98219 15.8983 1.26468 15.9169 1.22818C16.0307 1.00517 16.0289 0.726156 15.912 0.476863C15.847 0.338179 15.6744 0.163058 15.5371 0.096529C15.3192 -0.00905283 15.9094 -0.00144408 7.98283 -0.000657563C1.19441 4.34659e-05 0.734689 0.00192429 0.629193 0.0294525ZM2.52849 1.71568C2.52849 1.71994 3.54146 3.14146 4.77954 4.87459C6.01763 6.60772 7.05346 8.06279 7.0814 8.10804C7.10932 8.1533 7.14852 8.23794 7.16851 8.29613L7.20486 8.40191L7.20951 10.9707L7.21416 13.5395L7.99985 13.0157L8.78553 12.492L8.79027 10.447C8.79498 8.41236 8.79519 8.40137 8.83135 8.29613C8.85134 8.23794 8.89055 8.1533 8.91847 8.10804C8.94641 8.06279 9.98224 6.60772 11.2203 4.87459C12.4584 3.14146 13.4714 1.71994 13.4714 1.71568C13.4714 1.71143 11.0092 1.70794 7.99993 1.70794C4.99064 1.70794 2.52849 1.71143 2.52849 1.71568Z" fill="currentColor"/>
</g>
<defs>
<clipPath id="clip0_8874_15314">
<rect width="16" height="16" fill="white"/>
</clipPath>
</defs>
</svg>

<svg xmlns="http://www.w3.org/2000/svg" width="16" height="16" fill="none">
  <g clip-path="url(#a)">
    <path fill="currentColor" fill-rule="evenodd" d="M.63.03a.857.857 0 0 0-.556 1.174C.095 1.25 1.322 2.982 2.8 5.05l2.687 3.761v3.146c0 1.826.007 3.204.017 3.285.047.41.373.723.785.753.146.01.315-.02.432-.08.134-.07 3.494-2.32 3.548-2.378a.993.993 0 0 0 .199-.34l.038-.111.008-2.146.009-2.146 2.68-3.75a512.819 512.819 0 0 0 2.715-3.817.859.859 0 0 0-.005-.751.95.95 0 0 0-.375-.38c-.218-.106.372-.098-7.554-.098C1.194 0 .735.002.629.03Zm1.898 1.686c0 .004 1.013 1.425 2.252 3.159a636.653 636.653 0 0 1 2.3 3.233c.028.045.068.13.088.188l.036.106.005 2.569.004 2.569.786-.524.786-.524.004-2.045c.005-2.035.005-2.046.041-2.15.02-.06.06-.144.087-.189.028-.045 1.064-1.5 2.302-3.233a842.522 842.522 0 0 0 2.251-3.16c0-.004-2.462-.007-5.471-.007-3.01 0-5.472.003-5.472.008Z" clip-rule="evenodd"/>
  </g>
  <defs>
    <clipPath id="a">
      <path fill="#fff" d="M0 0h16v16H0z"/>
    </clipPath>
  </defs>
</svg>
